casedrop/img/footer/icons/users-white.svg

<svg width="20" height="20" viewBox="0 0 20 20" fill="none" xmlns="http://www.w3.org/2000/svg">
<g clip-path="url(#clip0_4044_903)">
<path fill-rule="evenodd" clip-rule="evenodd" d="M4.16666 7.9165C4.16666 5.84544 5.84559 4.1665 7.91666 4.1665C9.98774 4.1665 11.6667 5.84544 11.6667 7.9165C11.6667 9.98759 9.98774 11.6665 7.91666 11.6665C5.84559 11.6665 4.16666 9.98759 4.16666 7.9165Z" fill="white"/>
<path d="M11.9729 10.0527C11.935 10.1245 11.9511 10.2141 12.0163 10.2624C12.501 10.6212 13.1007 10.8333 13.75 10.8333C15.3608 10.8333 16.6667 9.5275 16.6667 7.91667C16.6667 6.30583 15.3608 5 13.75 5C13.1007 5 12.501 5.21217 12.0163 5.57094C11.9511 5.61928 11.935 5.70882 11.9729 5.78066C12.3095 6.41849 12.5 7.14533 12.5 7.91667C12.5 8.688 12.3095 9.41483 11.9729 10.0527Z" fill="white"/>
<path fill-rule="evenodd" clip-rule="evenodd" d="M3.86764 13.0827C4.8946 12.637 6.24205 12.5 7.91664 12.5C9.59268 12.5 10.9411 12.6372 11.9684 13.084C13.0875 13.5706 13.7677 14.3994 14.1242 15.5697C14.2913 16.1182 13.8793 16.6667 13.3115 16.6667H2.52335C1.95492 16.6667 1.54205 16.1173 1.70965 15.5678C2.06663 14.3974 2.74783 13.5688 3.86764 13.0827Z" fill="white"/>
<path d="M12.3488 11.697C12.0038 11.7184 11.9835 12.1819 12.3005 12.3197C13.1692 12.6975 13.8233 13.2536 14.2923 13.9633C14.6773 14.5457 15.275 15 15.9731 15H17.4569C18.0463 15 18.4763 14.4144 18.2689 13.8423C18.257 13.8094 18.2446 13.7767 18.2318 13.7443C17.9464 13.0238 17.4573 12.4934 16.7332 12.1553C16.0533 11.8379 15.2021 11.7069 14.1993 11.6673L14.1828 11.6666H14.1664C13.5758 11.6666 12.9588 11.6591 12.3488 11.697Z" fill="white"/>
</g>
<defs>
<clipPath id="clip0_4044_903">
<rect width="20" height="20" fill="white"/>
</clipPath>
</defs>
</svg>

<svg width="20" height="20" fill="none" xmlns="http://www.w3.org/2000/svg"><g clip-path="url(#clip0_4044_903)" fill="#fff"><path fill-rule="evenodd" clip-rule="evenodd" d="M4.167 7.917a3.75 3.75 0 117.5 0 3.75 3.75 0 01-7.5 0z"/><path d="M11.973 10.053a.164.164 0 00.043.21 2.917 2.917 0 100-4.691.164.164 0 00-.043.209c.336.637.527 1.364.527 2.136a4.56 4.56 0 01-.527 2.136z"/><path fill-rule="evenodd" clip-rule="evenodd" d="M3.868 13.083c1.027-.446 2.374-.583 4.049-.583 1.676 0 3.024.137 4.051.584 1.12.487 1.8 1.315 2.156 2.486a.85.85 0 01-.813 1.097H2.524a.85.85 0 01-.813-1.1c.357-1.17 1.038-1.998 2.158-2.484z"/><path d="M12.349 11.697c-.345.021-.366.485-.049.623.87.377 1.523.934 1.992 1.643.385.583.983 1.037 1.681 1.037h1.484c.59 0 1.02-.586.812-1.158a2.844 2.844 0 00-1.536-1.687c-.68-.317-1.53-.448-2.534-.488h-.033c-.59 0-1.207-.008-1.817.03z"/></g><defs><clipPath id="clip0_4044_903"><path fill="#fff" d="M0 0h20v20H0z"/></clipPath></defs></svg>
